src/rmpp_enhancer/profiles/rmpp_canvas_color.cube
# reMarkable Paper Pro Canvas Color (OKLab v3 - 5-Stage Advanced) Inverse Compensation LUT
TITLE "RMPP_Canvas_Color_Advanced_v3"
LUT_3D_SIZE 9
DOMAIN_MIN 0.0 0.0 0.0
DOMAIN_MAX 1.0 1.0 1.0
0.000000 0.000000 0.000000
0.273693 0.078810 0.057679
0.423205 0.095015 0.067399
0.568882 0.099411 0.068651
0.706424 0.080747 0.052109
0.832178 0.000000 0.000000
0.956620 0.000000 0.000000
1.000000 0.000000 0.000000
1.000000 0.000000 0.000000
0.127186 0.247096 0.000000
0.250917 0.245034 0.000000
0.391753 0.242589 0.107057
0.535937 0.245060 0.118736
0.665213 0.240299 0.119301
0.822932 0.166047 0.000000
0.949628 0.099967 0.000000
1.000000 0.000000 0.000000
1.000000 0.000000 0.000000
0.184620 0.384023 0.000000
0.272532 0.380352 0.000000
0.391616 0.379398 0.000000
0.527521 0.362875 0.039544
0.645497 0.357098 0.116763
0.803068 0.314744 0.000000
0.933816 0.280283 0.000000
1.000000 0.232650 0.000000
1.000000 0.157359 0.000000
0.223774 0.502785 0.000000
0.295709 0.497805 0.000000
0.390030 0.492848 0.000000
0.498850 0.488244 0.000000
0.636293 0.473956 0.000000
0.775667 0.453078 0.000000
0.910552 0.427635 0.000000
1.000000 0.396305 0.000000
1.000000 0.356715 0.000000
0.253950 0.613573 0.000000
0.316837 0.609403 0.000000
0.401644 0.605026 0.000000
0.503372 0.600064 0.000000
0.611074 0.595930 0.000000
0.744375 0.582799 0.000000
0.882651 0.562747 0.000000
1.000000 0.538702 0.000000
1.000000 0.510085 0.000000
0.281427 0.722874 0.000000
0.333742 0.719837 0.000000
0.418042 0.715040 0.000000
0.511490 0.710775 0.000000
0.615368 0.706034 0.000000
0.722024 0.702213 0.000000
0.851921 0.690213 0.000000
0.989576 0.671093 0.000000
1.000000 0.648496 0.000000
0.306735 0.831124 0.000000
0.351637 0.828788 0.000000
0.437643 0.823577 0.000000
0.523113 0.820127 0.000000
0.622074 0.815811 0.000000
0.726600 0.811443 0.000000
0.832542 0.807994 0.000000
0.959493 0.797095 0.000000
1.000000 0.778566 0.000000
0.330808 0.939130 0.000000
0.370225 0.937269 0.000000
0.452837 0.932476 0.000000
0.537887 0.928685 0.000000
0.631388 0.924886 0.000000
0.732747 0.920586 0.000000
0.837257 0.916443 0.000000
0.942494 0.913153 0.000000
1.000000 0.913372 0.000000
0.353372 1.000000 0.000000
0.388564 1.000000 0.000000
0.464191 1.000000 0.000000
0.554824 1.000000 0.000000
0.647236 1.000000 0.000000
0.750793 1.000000 0.000000
0.860819 1.000000 0.000000
0.970491 1.000000 0.000000
1.000000 1.000000 0.000000
0.000000 0.090066 0.262962
0.265706 0.080798 0.262752
0.420275 0.091160 0.242807
0.567257 0.095794 0.226449
0.704549 0.076337 0.206481
0.830774 0.000000 0.177183
0.955510 0.000000 0.139780
1.000000 0.000000 0.081023
1.000000 0.000000 0.000000
0.081525 0.249003 0.248242
0.242265 0.242265 0.242265
0.402850 0.233434 0.232047
0.555831 0.224310 0.220133
0.691973 0.201450 0.197667
0.821653 0.164632 0.168945
0.948584 0.098763 0.130400
1.000000 0.000000 0.065797
1.000000 0.000000 0.000000
0.128107 0.389522 0.190445
0.255708 0.383257 0.180638
0.384757 0.379010 0.160428
0.513101 0.367048 0.226077
0.644787 0.355888 0.216531
0.771794 0.343759 0.205193
0.932898 0.279803 0.103651
1.000000 0.232410 0.012088
1.000000 0.157411 0.000000
0.180314 0.506983 0.047442
0.271114 0.501366 0.022374
0.385394 0.493234 0.084956
0.503866 0.489567 0.000000
0.635360 0.473290 0.137362
0.751104 0.466269 0.192132
0.909776 0.427316 0.029727
1.000000 0.396133 0.000000
1.000000 0.356684 0.000000
0.219575 0.616970 0.000000
0.289887 0.613034 0.000000
0.396766 0.605800 0.000000
0.500304 0.600426 0.000000
0.608833 0.596052 0.007633
0.743655 0.582473 0.000000
0.881990 0.562518 0.000000
1.000000 0.538566 0.000000
1.000000 0.510042 0.000000
0.253082 0.725630 0.000000
0.310366 0.722701 0.000000
0.413301 0.715853 0.000000
0.508253 0.711356 0.000000
0.613126 0.706371 0.000000
0.720268 0.702416 0.000000
0.851343 0.690054 0.000000
0.989046 0.670991 0.000000
1.000000 0.648451 0.000000
0.282574 0.833401 0.000000
0.331002 0.831127 0.000000
0.426823 0.825267 0.000000
0.519850 0.820759 0.000000
0.619738 0.816277 0.000000
0.724867 0.811755 0.000000
0.831124 0.808222 0.000000
0.959009 0.797018 0.000000
1.000000 0.778527 0.000000
0.309735 0.941051 0.000000
0.351745 0.939223 0.000000
0.438130 0.934512 0.000000
0.534687 0.929296 0.000000
0.628998 0.925390 0.000000
0.730957 0.920971 0.000000
0.835858 0.916725 0.000000
0.941316 0.913378 0.000000
1.000000 0.913569 0.000000
0.334624 1.000000 0.000000
0.371808 1.000000 0.000000
0.450549 1.000000 0.000000
0.551826 1.000000 0.000000
0.645080 1.000000 0.000000
0.749188 1.000000 0.000000
0.859617 1.000000 0.000000
0.969025 1.000000 0.000000
1.000000 1.000000 0.000000
0.000000 0.145262 0.436815
0.249225 0.100756 0.427956
0.412379 0.094768 0.409822
0.562863 0.092859 0.391174
0.699782 0.067411 0.366758
0.827260 0.000000 0.338343
0.952751 0.000000 0.309483
1.000000 0.000000 0.278082
1.000000 0.000000 0.241335
0.000000 0.265711 0.398510
0.221562 0.245652 0.412390
0.398409 0.230951 0.397639
0.552349 0.221424 0.383167
0.687904 0.197279 0.357626
0.818458 0.160908 0.331354
0.945989 0.094851 0.303531
1.000000 0.000000 0.272469
1.000000 0.000000 0.235485
0.084388 0.388350 0.387809
0.221363 0.385033 0.384802
0.374227 0.374227 0.374227
0.522726 0.358029 0.357887
0.663964 0.337621 0.337899
0.799363 0.311931 0.314996
0.930624 0.278288 0.288856
1.000000 0.231399 0.258150
1.000000 0.156938 0.220164
0.069370 0.510866 0.324518
0.205737 0.506896 0.317228
0.365422 0.495744 0.300198
0.494466 0.488891 0.277997
0.633056 0.471497 0.308803
0.749826 0.464774 0.323227
0.876528 0.451560 0.310320
1.000000 0.395490 0.231866
1.000000 0.356379 0.190593
0.122962 0.622560 0.220390
0.224176 0.619246 0.213196
0.367014 0.610403 0.195604
0.493435 0.600984 0.222697
0.612451 0.597907 0.116570
0.741888 0.581528 0.249699
0.856014 0.574090 0.292650
1.000000 0.538093 0.187871
1.000000 0.509800 0.136401
0.173386 0.731077 0.000000
0.249984 0.728432 0.000000
0.375017 0.721511 0.000000
0.500482 0.712633 0.000000
0.607957 0.706978 0.099036
0.716269 0.702671 0.175515
0.849916 0.689565 0.157497
0.987731 0.670649 0.105144
1.000000 0.648252 0.000000
0.215245 0.838322 0.000000
0.276491 0.836204 0.000000
0.386606 0.830710 0.000000
0.511802 0.822242 0.000000
0.614099 0.817322 0.000000
0.720763 0.812390 0.000000
0.827781 0.808645 0.000000
0.957808 0.796764 0.000000
1.000000 0.778370 0.000000
0.251547 0.945411 0.000000
0.302523 0.943667 0.000000
0.400496 0.939168 0.000000
0.525724 0.930921 0.000000
0.623095 0.926584 0.000000
0.726593 0.921855 0.000000
0.832484 0.917340 0.000000
0.938476 0.913853 0.000000
1.000000 0.914030 0.000000
0.283295 1.000000 0.000000
0.327067 1.000000 0.000000
0.415280 1.000000 0.000000
0.532900 1.000000 0.000000
0.639706 1.000000 0.000000
0.745227 1.000000 0.000000
0.856682 1.000000 0.000000
0.965410 1.000000 0.000000
1.000000 1.000000 0.000000
0.000000 0.177355 0.589279
0.206014 0.136600 0.592835
0.400783 0.104942 0.571075
0.555529 0.093579 0.553668
0.691728 0.053764 0.525571
0.821278 0.000000 0.496617
0.948047 0.000000 0.468362
1.000000 0.000000 0.440106
1.000000 0.000000 0.410839
0.000000 0.273942 0.567932
0.180615 0.253864 0.576859
0.390841 0.229552 0.560073
0.543251 0.215564 0.542326
0.680974 0.190714 0.516282
0.813014 0.153795 0.489669
0.941568 0.085464 0.462856
1.000000 0.000000 0.435456
1.000000 0.000000 0.406657
0.000000 0.400326 0.524730
0.115307 0.398725 0.525258
0.355574 0.372959 0.536277
0.516736 0.352613 0.516664
0.658739 0.332889 0.496342
0.794867 0.307862 0.473835
0.926753 0.274846 0.449757
1.000000 0.228511 0.424057
1.000000 0.154381 0.396190
0.000000 0.506089 0.506109
0.174882 0.502972 0.503017
0.332336 0.495575 0.495617
0.483733 0.483733 0.483733
0.629160 0.468071 0.468283
0.769106 0.448387 0.449772
0.904603 0.424065 0.428612
1.000000 0.393780 0.404803
1.000000 0.355194 0.377907
0.000000 0.624306 0.449252
0.119865 0.622030 0.444459
0.304489 0.616007 0.432425
0.472773 0.603521 0.412485
0.601936 0.596714 0.390716
0.738921 0.579532 0.418697
0.854313 0.572491 0.431611
0.980517 0.559264 0.418785
1.000000 0.508986 0.350792
0.000000 0.736315 0.356306
0.126874 0.734180 0.351796
0.304808 0.728561 0.340509
0.468781 0.717712 0.321606
0.599997 0.707501 0.342431
0.718990 0.704914 0.264035
0.847509 0.688444 0.361875
0.960698 0.681051 0.399443
1.000000 0.668123 0.385902
0.000000 0.844464 0.221418
0.161042 0.842614 0.215497
0.315557 0.837797 0.200158
0.470227 0.828783 0.171913
0.604749 0.818849 0.189939
0.714313 0.813084 0.258356
0.822609 0.808933 0.301528
0.955764 0.796135 0.287698
1.000000 0.777914 0.256491
0.102792 0.951525 0.000000
0.198901 0.949934 0.000000
0.331381 0.945823 0.000000
0.475667 0.938250 0.000000
0.613007 0.928483 0.000000
0.719355 0.923161 0.000000
0.827034 0.918129 0.087157
0.933912 0.914389 0.183097
1.000000 0.914724 0.187346
0.164596 1.000000 0.000000
0.234153 1.000000 0.000000
0.349187 1.000000 0.000000
0.485432 1.000000 0.000000
0.630415 1.000000 0.000000
0.738519 1.000000 0.000000
0.851833 1.000000 0.000000
0.959333 1.000000 0.000000
1.000000 1.000000 0.000000
0.000000 0.205181 0.739820
0.132785 0.168642 0.749722
0.388032 0.114367 0.727988
0.542605 0.089028 0.708754
0.680915 0.029701 0.680525
0.812994 0.000000 0.651894
0.941442 0.000000 0.623643
1.000000 0.000000 0.595827
1.000000 0.000000 0.568110
0.000000 0.285477 0.725926
0.105326 0.265510 0.735009
0.373982 0.231559 0.721991
0.531329 0.207584 0.696797
0.671524 0.180880 0.671514
0.805439 0.141647 0.645003
0.935352 0.065585 0.618216
1.000000 0.000000 0.591389
1.000000 0.000000 0.564327
0.000000 0.409414 0.681372
0.000000 0.396984 0.692702
0.326211 0.371545 0.694798
0.508472 0.344901 0.672104
0.651475 0.325659 0.651836
0.788575 0.301075 0.629284
0.921304 0.268458 0.605419
1.000000 0.222322 0.580661
1.000000 0.147425 0.555012
0.000000 0.511681 0.634264
0.037282 0.510416 0.632032
0.254415 0.508166 0.630987
0.467209 0.482052 0.642086
0.623730 0.462576 0.623973
0.764095 0.443559 0.605676
0.900030 0.419894 0.585244
1.000000 0.390244 0.563081
1.000000 0.352282 0.539296
0.000000 0.618865 0.619580
0.080284 0.616815 0.617445
0.281760 0.611764 0.612197
0.441705 0.603238 0.603400
0.591239 0.591239 0.591239
0.734799 0.576024 0.576339
0.873743 0.557229 0.558875
1.000000 0.534425 0.539106
1.000000 0.507057 0.517301
0.000000 0.735744 0.570763
0.000000 0.734258 0.567351
0.225886 0.730414 0.558715
0.410394 0.723137 0.543463
0.579266 0.709928 0.521883
0.708049 0.703172 0.500435
0.844153 0.686310 0.527073
0.958743 0.679418 0.539496
1.000000 0.666696 0.527275
0.000000 0.848530 0.483836
0.000000 0.847071 0.480608
0.206926 0.843270 0.472446
0.402135 0.836109 0.458188
0.572513 0.824115 0.438183
0.705921 0.813488 0.456323
0.824864 0.811451 0.387285
0.952885 0.794841 0.472422
1.000000 0.776877 0.452270
0.000000 0.957369 0.374755
0.000000 0.956010 0.371287
0.213905 0.952490 0.362475
0.403434 0.945970 0.346868
0.570145 0.935487 0.324066
0.709239 0.924718 0.335156
0.819879 0.918758 0.384791
0.929587 0.916174 0.420035
1.000000 0.915500 0.420407
0.000000 1.000000 0.194566
0.000000 1.000000 0.188424
0.233178 1.000000 0.172695
0.413980 1.000000 0.147539
0.579159 1.000000 0.102661
0.728946 1.000000 0.111374
0.845224 1.000000 0.242147
0.950927 1.000000 0.308012
1.000000 1.000000 0.332543
0.000000 0.229733 0.889142
0.000000 0.197576 0.900235
0.348234 0.146226 0.888924
0.526881 0.070986 0.857779
0.668321 0.000000 0.831743
0.802902 0.000000 0.804215
0.933192 0.000000 0.776370
1.000000 0.000000 0.748719
1.000000 0.000000 0.721348
0.000000 0.298647 0.879310
0.000000 0.277388 0.886910
0.330825 0.239165 0.876889
0.517944 0.195096 0.847076
0.660308 0.165485 0.823282
0.796137 0.121114 0.797533
0.927564 0.020558 0.771026
1.000000 0.000000 0.744353
1.000000 0.000000 0.717687
0.000000 0.407375 0.839396
0.000000 0.394933 0.847101
0.284897 0.369512 0.848884
0.498622 0.334197 0.824091
0.642610 0.315182 0.804404
0.780755 0.290674 0.782142
0.914447 0.257948 0.758400
1.000000 0.211152 0.733832
1.000000 0.132918 0.708726
0.000000 0.526593 0.774693
0.000000 0.523109 0.780238
0.192081 0.505624 0.797985
0.443907 0.479307 0.798341
0.617000 0.454570 0.777073
0.757827 0.436191 0.758842
0.894261 0.413152 0.738543
1.000000 0.384096 0.716756
1.000000 0.346727 0.693869
0.000000 0.621862 0.745264
0.000000 0.620843 0.742895
0.211506 0.618537 0.738282
0.374853 0.615704 0.736257
0.575807 0.589461 0.747294
0.729660 0.570565 0.730034
0.868888 0.552358 0.712955
1.000000 0.530198 0.693997
1.000000 0.503410 0.673539
0.000000 0.730234 0.731705
0.000000 0.728767 0.730118
0.206243 0.725096 0.726164
0.391709 0.718740 0.719387
0.549558 0.709542 0.709756
0.697461 0.697462 0.697461
0.839950 0.682761 0.683102
0.978382 0.664922 0.666576
1.000000 0.643605 0.648043
0.000000 0.845933 0.690212
0.000000 0.844891 0.687649
0.057019 0.842217 0.681151
0.339003 0.837323 0.669625
0.517473 0.829358 0.652357
0.685345 0.815807 0.629864
0.813813 0.809239 0.608801
0.949249 0.792545 0.634564
1.000000 0.785692 0.646628
0.000000 0.959951 0.607745
0.000000 0.958888 0.605272
0.000000 0.956138 0.598995
0.312775 0.951047 0.587884
0.505140 0.942814 0.571514
0.676959 0.929990 0.550607
0.811307 0.918973 0.567138
0.933854 0.921160 0.506648
1.000000 0.916143 0.596494
0.000000 1.000000 0.509815
0.000000 1.000000 0.508001
0.000000 1.000000 0.503396
0.313664 1.000000 0.495247
0.511613 1.000000 0.483274
0.688016 1.000000 0.467983
0.836882 1.000000 0.484621
0.940490 1.000000 0.518346
1.000000 1.000000 0.531397
0.000000 0.247214 1.000000
0.000000 0.215244 1.000000
0.292345 0.153779 1.000000
0.509780 0.024641 1.000000
0.654986 0.000000 0.979783
0.791651 0.000000 0.953808
0.923693 0.000000 0.926819
1.000000 0.000000 0.899568
1.000000 0.000000 0.872410
0.000000 0.302483 1.000000
0.000000 0.281008 1.000000
0.275600 0.239985 1.000000
0.497259 0.179411 0.997784
0.648211 0.140060 0.971992
0.785674 0.083615 0.947455
0.918560 0.000000 0.921624
1.000000 0.000000 0.895275
1.000000 0.000000 0.868806
0.000000 0.404727 0.989112
0.000000 0.392309 0.995381
0.227364 0.366378 0.998563
0.467853 0.333953 0.978918
0.632745 0.300297 0.954244
0.771819 0.275383 0.932644
0.906460 0.241739 0.909280
1.000000 0.192694 0.884915
1.000000 0.105182 0.860000
0.000000 0.526547 0.934651
0.000000 0.518884 0.942335
0.099167 0.501130 0.953659
0.413442 0.475136 0.952143
0.609330 0.443530 0.927882
0.750572 0.425693 0.909888
0.887501 0.403152 0.889741
1.000000 0.374521 0.868094
1.000000 0.337510 0.845529
0.000000 0.635302 0.878210
0.000000 0.634932 0.878180
0.000000 0.633350 0.880944
0.328401 0.613169 0.902417
0.555522 0.586404 0.901755
0.723697 0.562743 0.881495
0.863191 0.545138 0.864532
0.999211 0.523649 0.845862
1.000000 0.497454 0.825831
0.000000 0.731183 0.856845
0.000000 0.730367 0.854746
0.121459 0.728382 0.849956
0.338533 0.725257 0.843562
0.488583 0.721996 0.840927
0.682753 0.695740 0.852018
0.835040 0.677420 0.835467
0.973690 0.660090 0.819383
1.000000 0.639294 0.801573
0.000000 0.840788 0.843055
0.000000 0.839691 0.841828
0.001176 0.836923 0.838750
0.325570 0.832068 0.833407
0.501121 0.824929 0.825685
0.656659 0.815387 0.815621
0.803349 0.803348 0.803348
0.944964 0.788914 0.789252
1.000000 0.771691 0.773276
0.000000 0.956186 0.802438
0.000000 0.955288 0.801426
0.000000 0.953016 0.798873
0.236291 0.949164 0.792299
0.451319 0.943509 0.778658
0.624423 0.935013 0.759940
0.790900 0.921139 0.736757
0.925716 0.921423 0.722469
1.000000 0.916409 0.758937
0.000000 1.000000 0.732168
0.000000 1.000000 0.730862
0.000000 1.000000 0.727537
0.174820 1.000000 0.721596
0.438017 1.000000 0.712660
0.629084 1.000000 0.700609
0.806300 1.000000 0.685212
0.928106 1.000000 0.687720
1.000000 1.000000 0.611264
0.000000 0.250958 1.000000
0.000000 0.221220 1.000000
0.220861 0.156548 1.000000
0.469699 0.051794 1.000000
0.641788 0.000000 1.000000
0.779901 0.000000 1.000000
0.913402 0.000000 1.000000
1.000000 0.000000 1.000000
1.000000 0.000000 1.000000
0.000000 0.302761 1.000000
0.000000 0.281809 1.000000
0.201159 0.238258 1.000000
0.458480 0.183249 1.000000
0.636036 0.093464 1.000000
0.774646 0.000000 1.000000
0.908759 0.000000 1.000000
1.000000 0.000000 1.000000
1.000000 0.000000 1.000000
0.000000 0.400929 1.000000
0.000000 0.388467 1.000000
0.136128 0.361667 1.000000
0.429528 0.326572 1.000000
0.622511 0.279253 1.000000
0.762238 0.253222 1.000000
0.897684 0.217312 1.000000
1.000000 0.162804 1.000000
1.000000 0.044293 1.000000
0.000000 0.521140 1.000000
0.000000 0.513365 1.000000
0.000000 0.495460 1.000000
0.374952 0.469240 1.000000
0.587239 0.434279 1.000000
0.742664 0.411339 1.000000
0.880006 0.389089 1.000000
1.000000 0.360585 1.000000
1.000000 0.323499 0.995442
0.000000 0.646242 1.000000
0.000000 0.641100 1.000000
0.000000 0.628520 1.000000
0.280501 0.607975 1.000000
0.530208 0.581751 1.000000
0.717149 0.552140 1.000000
0.856849 0.535104 1.000000
0.993214 0.514259 0.995930
1.000000 0.488601 0.976064
0.000000 0.743316 0.983522
0.000000 0.742953 0.982863
0.000000 0.742136 0.981945
0.118673 0.741074 0.983155
0.448745 0.719687 1.000000
0.664312 0.692745 1.000000
0.829583 0.669940 0.985829
0.968415 0.653144 0.969904
1.000000 0.632893 0.952358
0.000000 0.840097 0.968862
0.000000 0.839447 0.967076
0.000000 0.837826 0.962788
0.276852 0.835076 0.956087
0.456090 0.831420 0.948587
0.599413 0.827934 0.945665
0.789075 0.801647 0.956790
0.940157 0.783633 0.940601
1.000000 0.766859 0.925076
0.000000 0.950984 0.954070
0.000000 0.950117 0.953075
0.000000 0.947921 0.950570
0.222217 0.944044 0.946187
0.440596 0.938290 0.939784
0.609506 0.930525 0.931332
0.763324 0.921045 0.921286
0.922176 0.922176 0.922176
1.000000 0.928410 0.928688
0.000000 1.000000 0.920530
0.000000 1.000000 0.920362
0.000000 1.000000 0.919936
0.003914 1.000000 0.919180
0.389164 1.000000 0.917866
0.585343 1.000000 0.908481
0.751047 1.000000 0.886668
0.903206 1.000000 0.849995
1.000000 1.000000 0.814442
0.000000 0.249738 1.000000
0.000000 0.221255 1.000000
0.102761 0.153102 1.000000
0.424351 0.002961 1.000000
0.624237 0.000000 1.000000
0.768231 0.000000 1.000000
0.902775 0.000000 1.000000
1.000000 0.000000 1.000000
1.000000 0.000000 1.000000
0.000000 0.299681 1.000000
0.000000 0.279009 1.000000
0.057319 0.232934 1.000000
0.413324 0.166827 1.000000
0.615699 0.000000 1.000000
0.763599 0.000000 1.000000
0.898587 0.000000 1.000000
1.000000 0.000000 1.000000
1.000000 0.000000 1.000000
0.000000 0.395363 1.000000
0.000000 0.382779 1.000000
0.000000 0.354859 1.000000
0.384093 0.316367 1.000000
0.594199 0.260850 1.000000
0.752475 0.220729 1.000000
0.888484 0.179688 1.000000
1.000000 0.110502 1.000000
1.000000 0.000000 1.000000
0.000000 0.514404 1.000000
0.000000 0.506532 1.000000
0.000000 0.488323 1.000000
0.326303 0.461358 1.000000
0.558172 0.430417 1.000000
0.734459 0.392159 1.000000
0.872059 0.369897 1.000000
1.000000 0.341131 1.000000
1.000000 0.303184 1.000000
0.000000 0.640174 1.000000
0.000000 0.634853 1.000000
0.000000 0.621986 1.000000
0.213974 0.601343 1.000000
0.499577 0.575236 1.000000
0.701157 0.541731 1.000000
0.850172 0.521838 1.000000
0.986726 0.501470 1.000000
1.000000 0.476224 1.000000
0.000000 0.756286 1.000000
0.000000 0.756181 1.000000
0.000000 0.752221 1.000000
0.000000 0.736487 1.000000
0.412651 0.714502 1.000000
0.642050 0.688202 1.000000
0.823754 0.659982 1.000000
0.962706 0.643712 1.000000
1.000000 0.623997 1.000000
0.000000 0.851176 1.000000
0.000000 0.850843 1.000000
0.000000 0.850049 1.000000
0.000000 0.848833 1.000000
0.310515 0.847540 1.000000
0.563268 0.825914 1.000000
0.771783 0.798730 1.000000
0.934963 0.776413 1.000000
1.000000 0.761375 1.000000
0.000000 0.948786 1.000000
0.000000 0.948249 1.000000
0.000000 0.946891 1.000000
0.165305 0.944521 1.000000
0.403767 0.941124 1.000000
0.569154 0.936986 1.000000
0.712954 0.938137 1.000000
0.909179 0.921551 1.000000
1.000000 0.914899 1.000000
0.000000 1.000000 1.000000
0.000000 1.000000 1.000000
0.000000 1.000000 1.000000
0.000000 1.000000 1.000000
0.385534 1.000000 1.000000
0.579501 1.000000 1.000000
0.731405 1.000000 1.000000
0.877672 1.000000 1.000000
1.000000 1.000000 1.000000
