src/rmpp_enhancer/profiles/rmpp_canvas_color.cube
# reMarkable Paper Pro Canvas Color (OKLab v3 - 5-Stage Advanced) Inverse Compensation LUT
TITLE "RMPP_Canvas_Color_Advanced_v3"
LUT_3D_SIZE 5
DOMAIN_MIN 0.0 0.0 0.0
DOMAIN_MAX 1.0 1.0 1.0
0.000000 0.000000 0.000000
0.423205 0.095015 0.067399
0.706424 0.080747 0.052109
0.956620 0.000000 0.000000
1.000000 0.000000 0.000000
0.184620 0.384023 0.000000
0.391616 0.379398 0.000000
0.645497 0.357098 0.116763
0.933816 0.280283 0.000000
1.000000 0.157359 0.000000
0.253950 0.613573 0.000000
0.401644 0.605026 0.000000
0.611074 0.595930 0.000000
0.882651 0.562747 0.000000
1.000000 0.510085 0.000000
0.306735 0.831124 0.000000
0.437643 0.823577 0.000000
0.622074 0.815811 0.000000
0.832542 0.807994 0.000000
1.000000 0.778566 0.000000
0.353372 1.000000 0.000000
0.464191 1.000000 0.000000
0.647236 1.000000 0.000000
0.860819 1.000000 0.000000
1.000000 1.000000 0.000000
0.000000 0.145262 0.436815
0.412379 0.094768 0.409822
0.699782 0.067411 0.366758
0.952751 0.000000 0.309483
1.000000 0.000000 0.241335
0.084388 0.388350 0.387809
0.374227 0.374227 0.374227
0.663964 0.337621 0.337899
0.930624 0.278288 0.288856
1.000000 0.156938 0.220164
0.122962 0.622560 0.220390
0.367014 0.610403 0.195604
0.612451 0.597907 0.116570
0.856014 0.574090 0.292650
1.000000 0.509800 0.136401
0.215245 0.838322 0.000000
0.386606 0.830710 0.000000
0.614099 0.817322 0.000000
0.827781 0.808645 0.000000
1.000000 0.778370 0.000000
0.283295 1.000000 0.000000
0.415280 1.000000 0.000000
0.639706 1.000000 0.000000
0.856682 1.000000 0.000000
1.000000 1.000000 0.000000
0.000000 0.205181 0.739820
0.388032 0.114367 0.727988
0.680915 0.029701 0.680525
0.941442 0.000000 0.623643
1.000000 0.000000 0.568110
0.000000 0.409414 0.681372
0.326211 0.371545 0.694798
0.651475 0.325659 0.651836
0.921304 0.268458 0.605419
1.000000 0.147425 0.555012
0.000000 0.618865 0.619580
0.281760 0.611764 0.612197
0.591239 0.591239 0.591239
0.873743 0.557229 0.558875
1.000000 0.507057 0.517301
0.000000 0.848530 0.483836
0.206926 0.843270 0.472446
0.572513 0.824115 0.438183
0.824864 0.811451 0.387285
1.000000 0.776877 0.452270
0.000000 1.000000 0.194566
0.233178 1.000000 0.172695
0.579159 1.000000 0.102661
0.845224 1.000000 0.242147
1.000000 1.000000 0.332543
0.000000 0.247214 1.000000
0.292345 0.153779 1.000000
0.654986 0.000000 0.979783
0.923693 0.000000 0.926819
1.000000 0.000000 0.872410
0.000000 0.404727 0.989112
0.227364 0.366378 0.998563
0.632745 0.300297 0.954244
0.906460 0.241739 0.909280
1.000000 0.105182 0.860000
0.000000 0.635302 0.878210
0.000000 0.633350 0.880944
0.555522 0.586404 0.901755
0.863191 0.545138 0.864532
1.000000 0.497454 0.825831
0.000000 0.840788 0.843055
0.001176 0.836923 0.838750
0.501121 0.824929 0.825685
0.803349 0.803348 0.803348
1.000000 0.771691 0.773276
0.000000 1.000000 0.732168
0.000000 1.000000 0.727537
0.438017 1.000000 0.712660
0.806300 1.000000 0.685212
1.000000 1.000000 0.611264
0.000000 0.249738 1.000000
0.102761 0.153102 1.000000
0.624237 0.000000 1.000000
0.902775 0.000000 1.000000
1.000000 0.000000 1.000000
0.000000 0.395363 1.000000
0.000000 0.354859 1.000000
0.594199 0.260850 1.000000
0.888484 0.179688 1.000000
1.000000 0.000000 1.000000
0.000000 0.640174 1.000000
0.000000 0.621986 1.000000
0.499577 0.575236 1.000000
0.850172 0.521838 1.000000
1.000000 0.476224 1.000000
0.000000 0.851176 1.000000
0.000000 0.850049 1.000000
0.310515 0.847540 1.000000
0.771783 0.798730 1.000000
1.000000 0.761375 1.000000
0.000000 1.000000 1.000000
0.000000 1.000000 1.000000
0.385534 1.000000 1.000000
0.731405 1.000000 1.000000
1.000000 1.000000 1.000000
