src/rmpp_enhancer/profiles/rmpp_canvas_color.cube
# reMarkable Paper Pro Canvas Color (OKLab v3 - 5-Stage Advanced) Inverse Compensation LUT
TITLE "RMPP_Canvas_Color_Advanced_v3"
LUT_3D_SIZE 33
DOMAIN_MIN 0.0 0.0 0.0
DOMAIN_MAX 1.0 1.0 1.0
0.000000 0.000000 0.000000
0.128561 0.033567 0.023709
0.178464 0.049679 0.034641
0.226880 0.065044 0.046774
0.273693 0.078810 0.057679
0.311621 0.084051 0.060945
0.349128 0.088466 0.063635
0.386302 0.092110 0.065780
0.423205 0.095015 0.067399
0.459883 0.097199 0.068500
0.496372 0.098667 0.069084
0.532697 0.099411 0.069140
0.568882 0.099411 0.068651
0.604942 0.098635 0.067590
0.640893 0.097034 0.065916
0.674723 0.091444 0.061035
0.706424 0.080747 0.052109
0.738011 0.066864 0.040778
0.769493 0.047931 0.026957
0.800880 0.021471 0.011840
0.832178 0.000000 0.000000
0.863396 0.000000 0.000000
0.894538 0.000000 0.000000
0.925612 0.000000 0.000000
0.956620 0.000000 0.000000
0.987568 0.000000 0.000000
1.000000 0.000000 0.000000
1.000000 0.000000 0.000000
1.000000 0.000000 0.000000
1.000000 0.000000 0.000000
1.000000 0.000000 0.000000
1.000000 0.000000 0.000000
1.000000 0.000000 0.000000
0.066855 0.126164 0.019572
0.131881 0.130082 0.021146
0.177282 0.132333 0.054906
0.216169 0.137002 0.073420
0.254945 0.138655 0.077749
0.292702 0.141185 0.082260
0.329665 0.144352 0.086812
0.366023 0.147950 0.091319
0.401917 0.151824 0.095730
0.437450 0.155858 0.100016
0.472694 0.159970 0.104160
0.507704 0.164099 0.108154
0.542519 0.168202 0.111995
0.577170 0.172247 0.115683
0.611681 0.176211 0.119217
0.672145 0.121016 0.059187
0.704096 0.111906 0.049920
0.735896 0.100840 0.038091
0.767562 0.087131 0.024164
0.799109 0.069512 0.008959
0.830547 0.045009 0.000000
0.861888 0.011173 0.000000
0.893139 0.000000 0.000000
0.924310 0.000000 0.000000
0.955405 0.000000 0.000000
0.986431 0.000000 0.000000
1.000000 0.000000 0.000000
1.000000 0.000000 0.000000
1.000000 0.000000 0.000000
1.000000 0.000000 0.000000
1.000000 0.000000 0.000000
1.000000 0.000000 0.000000
1.000000 0.000000 0.000000
0.095836 0.176109 0.023878
0.143356 0.173918 0.044149
0.177652 0.174666 0.018477
0.215515 0.172189 0.062851
0.256989 0.170175 0.065396
0.288225 0.173639 0.087298
0.325759 0.174794 0.091047
0.362651 0.176478 0.094896
0.399009 0.178585 0.098769
0.434934 0.181015 0.102616
0.470506 0.183682 0.106398
0.505789 0.186513 0.110094
0.540832 0.189453 0.113686
0.575675 0.192455 0.117164
0.610105 0.195249 0.120294
0.640906 0.194627 0.119989
0.701548 0.139055 0.047328
0.733572 0.129413 0.035009
0.765433 0.118015 0.020976
0.797150 0.104288 0.005679
0.828739 0.087248 0.000000
0.860213 0.064866 0.000000
0.891583 0.031664 0.000000
0.922858 0.000000 0.000000
0.954048 0.000000 0.000000
0.985159 0.000000 0.000000
1.000000 0.000000 0.000000
1.000000 0.000000 0.000000
1.000000 0.000000 0.000000
1.000000 0.000000 0.000000
1.000000 0.000000 0.000000
1.000000 0.000000 0.000000
1.000000 0.000000 0.000000
0.111872 0.211970 0.013439
0.151835 0.209813 0.027389
0.180337 0.209142 0.047509
0.214549 0.210147 0.003351
0.250272 0.207787 0.066861
0.291024 0.205555 0.069247
0.321529 0.208209 0.096119
0.358777 0.208610 0.099310
0.395521 0.209410 0.102612
0.431816 0.210556 0.105966
0.467724 0.211993 0.109329
0.503306 0.213663 0.112665
0.538611 0.215518 0.115950
0.573682 0.217511 0.119164
0.606749 0.217926 0.120572
0.637859 0.216674 0.120119
0.698041 0.170057 0.043378
0.730358 0.161460 0.030536
0.762476 0.151658 0.016359
0.794421 0.140353 0.000935
0.826212 0.127114 0.000000
0.857866 0.111258 0.000000
0.889396 0.091568 0.000000
0.920817 0.065363 0.000000
0.952137 0.025183 0.000000
0.983365 0.000000 0.000000
1.000000 0.000000 0.000000
1.000000 0.000000 0.000000
1.000000 0.000000 0.000000
1.000000 0.000000 0.000000
1.000000 0.000000 0.000000
1.000000 0.000000 0.000000
1.000000 0.000000 0.000000
0.127186 0.247096 0.000000
0.162213 0.245059 0.006161
0.187461 0.244322 0.025537
0.216281 0.243860 0.048392
0.250917 0.245034 0.000000
0.284758 0.242825 0.069154
0.324949 0.240498 0.071549
0.364921 0.238113 0.071559
0.391753 0.242589 0.107057
0.428320 0.242834 0.109920
0.464514 0.243349 0.112845
0.500373 0.244102 0.115793
0.535937 0.245060 0.118736
0.570790 0.245776 0.121207
0.602562 0.244020 0.120825
0.634023 0.242207 0.120196
0.665213 0.240299 0.119301
0.726242 0.195500 0.024433
0.758670 0.186794 0.010081
0.790893 0.177052 0.000000
0.822932 0.166047 0.000000
0.854809 0.153464 0.000000
0.886541 0.138846 0.000000
0.918143 0.121455 0.000000
0.949628 0.099967 0.000000
0.981006 0.071426 0.000000
1.000000 0.026614 0.000000
1.000000 0.000000 0.000000
1.000000 0.000000 0.000000
1.000000 0.000000 0.000000
1.000000 0.000000 0.000000
1.000000 0.000000 0.000000
1.000000 0.000000 0.000000
0.142038 0.281776 0.000000
0.173830 0.279780 0.000000
0.196133 0.279113 0.000000
0.222679 0.278489 0.021156
0.251796 0.278190 0.046974
0.286894 0.279485 0.000000
0.319014 0.277445 0.069733
0.359311 0.274900 0.069110
0.398409 0.272592 0.071718
0.437586 0.270065 0.070922
0.461084 0.276416 0.116784
0.497159 0.276508 0.119347
0.532946 0.276788 0.121940
0.565512 0.274566 0.121567
0.597676 0.272334 0.120973
0.629499 0.270076 0.120151
0.661021 0.267760 0.119075
0.692279 0.265358 0.117724
0.754064 0.222491 0.001952
0.786599 0.213810 0.000000
0.818922 0.204239 0.000000
0.851057 0.193603 0.000000
0.883024 0.181672 0.000000
0.914840 0.168131 0.000000
0.946520 0.152516 0.000000
0.978077 0.134091 0.000000
1.000000 0.111542 0.000000
1.000000 0.082002 0.000000
1.000000 0.035916 0.000000
1.000000 0.000000 0.000000
1.000000 0.000000 0.000000
1.000000 0.000000 0.000000
1.000000 0.000000 0.000000
0.156519 0.316114 0.000000
0.186140 0.314117 0.000000
0.206008 0.313523 0.000000
0.230307 0.312894 0.000000
0.257751 0.312383 0.014190
0.286972 0.312217 0.042927
0.322570 0.313601 0.000000
0.353076 0.311740 0.068509
0.393029 0.309186 0.067307
0.431836 0.306821 0.070205
0.470814 0.304211 0.068765
0.493455 0.309664 0.122809
0.526800 0.307086 0.122358
0.559717 0.304525 0.121739
0.592242 0.301965 0.120929
0.624412 0.299388 0.119901
0.656263 0.296772 0.118632
0.687828 0.294092 0.117097
0.719136 0.291325 0.115269
0.781600 0.250324 0.000000
0.814230 0.241745 0.000000
0.846648 0.232392 0.000000
0.878874 0.222131 0.000000
0.910928 0.210790 0.000000
0.942827 0.198146 0.000000
0.974586 0.183889 0.000000
1.000000 0.167571 0.000000
1.000000 0.148487 0.000000
1.000000 0.125407 0.000000
1.000000 0.095766 0.000000
1.000000 0.051870 0.000000
1.000000 0.000000 0.000000
1.000000 0.000000 0.000000
0.170698 0.350179 0.000000
0.196589 0.348530 0.000000
0.216785 0.347612 0.000000
0.238992 0.347030 0.000000
0.264690 0.346460 0.000000
0.292637 0.346057 0.004376
0.321875 0.345998 0.035657
0.358006 0.347451 0.000000
0.386971 0.345774 0.065287
0.426644 0.343223 0.063431
0.463672 0.339367 0.064501
0.500216 0.334621 0.058717
0.536214 0.329640 0.051731
0.553580 0.335047 0.121621
0.586415 0.332292 0.120596
0.618896 0.329514 0.119360
0.651051 0.326698 0.117890
0.682910 0.323828 0.116159
0.714499 0.320887 0.114139
0.745842 0.317856 0.111799
0.808921 0.278578 0.000000
0.841634 0.270142 0.000000
0.874135 0.261024 0.000000
0.906444 0.251120 0.000000
0.938580 0.240300 0.000000
0.970559 0.228398 0.000000
1.000000 0.215200 0.000000
1.000000 0.200409 0.000000
1.000000 0.183599 0.000000
1.000000 0.164118 0.000000
1.000000 0.140853 0.000000
1.000000 0.111599 0.000000
1.000000 0.070489 0.000000
0.184620 0.384023 0.000000
0.207539 0.382631 0.000000
0.228229 0.381437 0.000000
0.248546 0.380914 0.000000
0.272532 0.380352 0.000000
0.299105 0.379854 0.000000
0.327341 0.379549 0.000000
0.356395 0.379412 0.024841
0.391616 0.379398 0.000000
0.417415 0.376269 0.053878
0.454956 0.371934 0.047436
0.491189 0.367604 0.047950
0.527521 0.362875 0.039544
0.563365 0.357898 0.029639
0.580327 0.362909 0.119880
0.613072 0.360026 0.118438
0.645497 0.357098 0.116763
0.677624 0.354117 0.114828
0.709475 0.351070 0.112603
0.741073 0.347944 0.110056
0.803068 0.314744 0.000000
0.836079 0.307008 0.000000
0.868860 0.298735 0.000000
0.901433 0.289855 0.000000
0.933816 0.280283 0.000000
0.966026 0.269919 0.000000
0.998079 0.258638 0.000000
1.000000 0.246285 0.000000
1.000000 0.232650 0.000000
1.000000 0.217455 0.000000
1.000000 0.200306 0.000000
1.000000 0.180603 0.000000
1.000000 0.157359 0.000000
0.198324 0.417681 0.000000
0.218827 0.416486 0.000000
0.239555 0.414966 0.000000
0.258159 0.413881 0.000000
0.279871 0.412644 0.000000
0.304227 0.411243 0.000000
0.330369 0.409776 0.000000
0.357597 0.408357 0.000000
0.385401 0.407105 0.000000
0.421130 0.407089 0.000000
0.445400 0.404215 0.031304
0.482662 0.399916 0.022642
0.519451 0.395343 0.013023
0.554781 0.390913 0.013353
0.590480 0.385960 0.002235
0.625758 0.380749 0.000000
0.639699 0.387684 0.115158
0.672060 0.384657 0.113011
0.704148 0.381563 0.110570
0.735981 0.378393 0.107800
0.767576 0.375138 0.104662
0.830050 0.343086 0.000000
0.863110 0.335474 0.000000
0.895948 0.327371 0.000000
0.928583 0.318720 0.000000
0.961030 0.309454 0.000000
0.993307 0.299492 0.000000
1.000000 0.288739 0.000000
1.000000 0.277075 0.000000
1.000000 0.264349 0.000000
1.000000 0.250368 0.000000
1.000000 0.234869 0.000000
1.000000 0.217485 0.000000
0.207427 0.446605 0.000000
0.225748 0.445268 0.000000
0.244612 0.443749 0.000000
0.264392 0.442380 0.000000
0.284696 0.441273 0.000000
0.307777 0.439988 0.000000
0.332865 0.438589 0.000000
0.359294 0.437163 0.000000
0.386534 0.435804 0.000000
0.414205 0.434609 0.000000
0.450469 0.434577 0.000000
0.473253 0.431962 0.002790
0.510274 0.427696 0.000000
0.546855 0.423161 0.000000
0.581997 0.418759 0.000000
0.617561 0.413841 0.000000
0.652738 0.408665 0.000000
0.687551 0.403221 0.000000
0.698595 0.412155 0.107941
0.730638 0.408985 0.104927
0.762443 0.405732 0.101530
0.794027 0.402388 0.097698
0.856947 0.371370 0.000000
0.890045 0.363891 0.000000
0.922929 0.355960 0.000000
0.955615 0.347528 0.000000
0.988118 0.338543 0.000000
1.000000 0.328939 0.000000
1.000000 0.318639 0.000000
1.000000 0.307551 0.000000
1.000000 0.295561 0.000000
1.000000 0.282528 0.000000
1.000000 0.268265 0.000000
0.215719 0.474774 0.000000
0.232501 0.473599 0.000000
0.249955 0.472265 0.000000
0.270986 0.470639 0.000000
0.290006 0.469649 0.000000
0.311874 0.468476 0.000000
0.335905 0.467168 0.000000
0.361479 0.465784 0.000000
0.388076 0.464400 0.000000
0.415291 0.463094 0.000000
0.442834 0.461948 0.000000
0.479656 0.461891 0.000000
0.500989 0.459536 0.000000
0.537800 0.455302 0.000000
0.574197 0.450804 0.000000
0.609167 0.446434 0.000000
0.644607 0.441556 0.000000
0.679690 0.436423 0.000000
0.714434 0.431027 0.000000
0.725105 0.439575 0.101319
0.757098 0.436357 0.097629
0.788872 0.433049 0.093474
0.820438 0.429645 0.088783
0.883776 0.399561 0.000000
0.916903 0.392216 0.000000
0.949823 0.384452 0.000000
0.982551 0.376229 0.000000
1.000000 0.367501 0.000000
1.000000 0.358216 0.000000
1.000000 0.348312 0.000000
1.000000 0.337714 0.000000
1.000000 0.326335 0.000000
1.000000 0.314067 0.000000
0.223774 0.502785 0.000000
0.239255 0.501742 0.000000
0.255491 0.500558 0.000000
0.276867 0.498852 0.000000
0.295709 0.497805 0.000000
0.316438 0.496738 0.000000
0.339435 0.495525 0.000000
0.364132 0.494210 0.000000
0.390030 0.492848 0.000000
0.416721 0.491505 0.000000
0.443889 0.490248 0.000000
0.471310 0.489142 0.000000
0.498850 0.488244 0.000000
0.528153 0.486984 0.000000
0.564574 0.482887 0.000000
0.600616 0.478544 0.000000
0.636293 0.473956 0.000000
0.671619 0.469121 0.000000
0.706612 0.464035 0.000000
0.741289 0.458691 0.000000
0.775667 0.453078 0.000000
0.783536 0.463661 0.088265
0.815273 0.460318 0.083134
0.877191 0.434482 0.000000
0.910552 0.427635 0.000000
0.943700 0.420425 0.000000
0.976648 0.412823 0.000000
1.000000 0.404796 0.000000
1.000000 0.396305 0.000000
1.000000 0.387307 0.000000
1.000000 0.377751 0.000000
1.000000 0.367577 0.000000
1.000000 0.356715 0.000000
0.231609 0.530656 0.000000
0.245977 0.529722 0.000000
0.261151 0.528662 0.000000
0.281270 0.527136 0.000000
0.301728 0.525773 0.000000
0.321396 0.524801 0.000000
0.343400 0.523681 0.000000
0.367220 0.522444 0.000000
0.392387 0.521132 0.000000
0.418500 0.519796 0.000000
0.445236 0.518493 0.000000
0.472345 0.517279 0.000000
0.499653 0.516209 0.000000
0.527054 0.515329 0.000000
0.555671 0.514272 0.000000
0.591928 0.510200 0.000000
0.627824 0.505890 0.000000
0.663375 0.501340 0.000000
0.698598 0.496549 0.000000
0.733506 0.491512 0.000000
0.768117 0.486223 0.000000
0.802448 0.480671 0.000000
0.809952 0.490890 0.076161
0.841652 0.487529 0.069654
0.903918 0.462322 0.000000
0.937285 0.455587 0.000000
0.970446 0.448508 0.000000
1.000000 0.441060 0.000000
1.000000 0.433217 0.000000
1.000000 0.424944 0.000000
1.000000 0.416206 0.000000
1.000000 0.406960 0.000000
1.000000 0.397158 0.000000
0.239240 0.558403 0.000000
0.252647 0.557560 0.000000
0.266892 0.556604 0.000000
0.285891 0.555228 0.000000
0.308002 0.553575 0.000000
0.326686 0.552689 0.000000
0.347743 0.551656 0.000000
0.370703 0.550499 0.000000
0.395125 0.549251 0.000000
0.420626 0.547950 0.000000
0.446880 0.546642 0.000000
0.473629 0.545375 0.000000
0.500675 0.544199 0.000000
0.527877 0.543161 0.000000
0.555153 0.542298 0.000000
0.583104 0.541441 0.000000
0.619213 0.537393 0.000000
0.654978 0.533114 0.000000
0.690416 0.528601 0.000000
0.725542 0.523853 0.000000
0.760372 0.518865 0.000000
0.794921 0.513631 0.000000
0.829206 0.508142 0.000000
0.863239 0.502389 0.000000
0.897037 0.496360 0.000000
0.930613 0.490040 0.000000
0.963980 0.483413 0.000000
0.997150 0.476460 0.000000
1.000000 0.469160 0.000000
1.000000 0.461489 0.000000
1.000000 0.453418 0.000000
1.000000 0.444917 0.000000
1.000000 0.436006 0.000000
0.246683 0.586038 0.000000
0.259250 0.585273 0.000000
0.272672 0.584405 0.000000
0.290670 0.583156 0.000000
0.312949 0.581470 0.000000
0.332252 0.580423 0.000000
0.352416 0.579470 0.000000
0.374541 0.578392 0.000000
0.398221 0.577212 0.000000
0.423088 0.575961 0.000000
0.448826 0.574675 0.000000
0.475170 0.573395 0.000000
0.501912 0.572162 0.000000
0.528890 0.571021 0.000000
0.555993 0.570010 0.000000
0.583157 0.569161 0.000000
0.610458 0.568503 0.000000
0.646434 0.564478 0.000000
0.682081 0.560228 0.000000
0.717415 0.555751 0.000000
0.752453 0.551044 0.000000
0.787210 0.546104 0.000000
0.821700 0.540925 0.000000
0.855940 0.535498 0.000000
0.889940 0.529816 0.000000
0.923716 0.523867 0.000000
0.957280 0.517638 0.000000
0.990644 0.511117 0.000000
1.000000 0.504285 0.000000
1.000000 0.497125 0.000000
1.000000 0.489614 0.000000
1.000000 0.481782 0.000000
1.000000 0.473572 0.000000
0.253950 0.613573 0.000000
0.265779 0.612874 0.000000
0.278468 0.612081 0.000000
0.295565 0.610941 0.000000
0.316837 0.609403 0.000000
0.338053 0.608021 0.000000
0.357373 0.607141 0.000000
0.378696 0.606137 0.000000
0.401644 0.605026 0.000000
0.425870 0.603833 0.000000
0.451066 0.602586 0.000000
0.476972 0.601317 0.000000
0.503372 0.600064 0.000000
0.530092 0.598863 0.000000
0.557003 0.597753 0.000000
0.584014 0.596765 0.000000
0.611074 0.595930 0.000000
0.638192 0.595297 0.000000
0.673596 0.591465 0.000000
0.709135 0.587242 0.000000
0.744375 0.582799 0.000000
0.779332 0.578133 0.000000
0.814020 0.573239 0.000000
0.848456 0.568113 0.000000
0.882651 0.562747 0.000000
0.916619 0.557133 0.000000
0.950372 0.551263 0.000000
0.983922 0.545123 0.000000
1.000000 0.538702 0.000000
1.000000 0.531986 0.000000
1.000000 0.525015 0.000000
1.000000 0.517725 0.000000
1.000000 0.510085 0.000000
0.261046 0.641016 0.000000
0.272224 0.640375 0.000000
0.284258 0.639647 0.000000
0.300539 0.638601 0.000000
0.320893 0.637189 0.000000
0.344048 0.635497 0.000000
0.362576 0.634683 0.000000
0.383131 0.633748 0.000000
0.405366 0.632705 0.000000
0.428951 0.631572 0.000000
0.453593 0.630373 0.000000
0.479035 0.629133 0.000000
0.505059 0.627883 0.000000
0.531488 0.626656 0.000000
0.558178 0.625485 0.000000
0.585023 0.624402 0.000000
0.611949 0.623436 0.000000
0.638913 0.622612 0.000000
0.665931 0.621979 0.000000
0.700702 0.618363 0.000000
0.736144 0.614166 0.000000
0.771297 0.609755 0.000000
0.806179 0.605128 0.000000
0.840805 0.600278 0.000000
0.875187 0.595204 0.000000
0.909341 0.589896 0.000000
0.943276 0.584349 0.000000
0.977006 0.578554 0.000000
1.000000 0.572511 0.000000
1.000000 0.566249 0.000000
1.000000 0.559706 0.000000
1.000000 0.552868 0.000000
1.000000 0.545720 0.000000
0.267988 0.668376 0.000000
0.278581 0.667785 0.000000
0.290027 0.667114 0.000000
0.305572 0.666149 0.000000
0.325083 0.664848 0.000000
0.348109 0.663179 0.000000
0.367990 0.662110 0.000000
0.387814 0.661239 0.000000
0.409356 0.660260 0.000000
0.432310 0.659187 0.000000
0.456392 0.658040 0.000000
0.481352 0.656840 0.000000
0.506977 0.655611 0.000000
0.533083 0.654380 0.000000
0.559522 0.653179 0.000000
0.586177 0.652035 0.000000
0.612958 0.650977 0.000000
0.639804 0.650030 0.000000
0.666680 0.649216 0.000000
0.693607 0.648582 0.000000
0.727758 0.645180 0.000000
0.763108 0.641007 0.000000
0.798183 0.636627 0.000000
0.832996 0.632036 0.000000
0.867563 0.627230 0.000000
0.901896 0.622204 0.000000
0.936009 0.616953 0.000000
0.969955 0.611509 0.000000
1.000000 0.605844 0.000000
1.000000 0.599931 0.000000
1.000000 0.593762 0.000000
1.000000 0.587323 0.000000
1.000000 0.580603 0.000000
0.274779 0.695660 0.000000
0.284849 0.695112 0.000000
0.295765 0.694491 0.000000
0.310637 0.693597 0.000000
0.329374 0.692393 0.000000
0.351572 0.690849 0.000000
0.373585 0.689434 0.000000
0.392714 0.688620 0.000000
0.413590 0.687701 0.000000
0.435924 0.686688 0.000000
0.459447 0.685595 0.000000
0.483917 0.684439 0.000000
0.509123 0.683241 0.000000
0.534882 0.682025 0.000000
0.561044 0.680814 0.000000
0.587481 0.679636 0.000000
0.614096 0.678517 0.000000
0.640815 0.677482 0.000000
0.667586 0.676552 0.000000
0.694382 0.675748 0.000000
0.721225 0.675113 0.000000
0.754765 0.671922 0.000000
0.790033 0.667773 0.000000
0.825034 0.663421 0.000000
0.859783 0.658865 0.000000
0.894317 0.654121 0.000000
0.928660 0.649196 0.000000
0.962793 0.644054 0.000000
0.996729 0.638688 0.000000
1.000000 0.633092 0.000000
1.000000 0.627258 0.000000
1.000000 0.621176 0.000000
1.000000 0.614835 0.000000
0.281427 0.722874 0.000000
0.291027 0.722364 0.000000
0.301461 0.721787 0.000000
0.315718 0.720956 0.000000
0.333742 0.719837 0.000000
0.355172 0.718403 0.000000
0.379337 0.716664 0.000000
0.397807 0.715904 0.000000
0.418042 0.715040 0.000000
0.439771 0.714083 0.000000
0.462740 0.713043 0.000000
0.486715 0.711935 0.000000
0.511490 0.710775 0.000000
0.536885 0.709583 0.000000
0.562745 0.708380 0.000000
0.588941 0.707189 0.000000
0.615368 0.706034 0.000000
0.641942 0.704938 0.000000
0.668601 0.703923 0.000000
0.695302 0.703009 0.000000
0.722024 0.702213 0.000000
0.748788 0.701577 0.000000
0.781726 0.698597 0.000000
0.816940 0.694489 0.000000
0.851921 0.690213 0.000000
0.886662 0.685739 0.000000
0.921177 0.681064 0.000000
0.955478 0.676184 0.000000
0.989576 0.671093 0.000000
1.000000 0.665786 0.000000
1.000000 0.660256 0.000000
1.000000 0.654495 0.000000
1.000000 0.648496 0.000000
0.287945 0.750022 0.000000
0.297114 0.749547 0.000000
0.307109 0.749008 0.000000
0.320803 0.748234 0.000000
0.338167 0.747190 0.000000
0.358879 0.745854 0.000000
0.382545 0.744200 0.000000
0.403068 0.743097 0.000000
0.422688 0.742286 0.000000
0.443830 0.741382 0.000000
0.466255 0.740394 0.000000
0.489736 0.739334 0.000000
0.514073 0.738216 0.000000
0.539089 0.737055 0.000000
0.564629 0.735871 0.000000
0.590562 0.734682 0.000000
0.616778 0.733510 0.000000
0.643188 0.732376 0.000000
0.669720 0.731301 0.000000
0.696322 0.730305 0.000000
0.722957 0.729405 0.000000
0.749645 0.728654 0.000000
0.776379 0.728061 0.000000
0.808768 0.725332 0.000000
0.843938 0.721271 0.000000
0.878858 0.717020 0.000000
0.913545 0.712577 0.000000
0.948013 0.707939 0.000000
0.982275 0.703101 0.000000
1.000000 0.698059 0.000000
1.000000 0.692808 0.000000
1.000000 0.687340 0.000000
1.000000 0.681650 0.000000
0.294327 0.777111 0.000000
0.303114 0.776666 0.000000
0.312705 0.776162 0.000000
0.325879 0.775437 0.000000
0.342634 0.774461 0.000000
0.362680 0.773212 0.000000
0.385649 0.771666 0.000000
0.408479 0.770209 0.000000
0.427509 0.769445 0.000000
0.448083 0.768591 0.000000
0.469974 0.767653 0.000000
0.492965 0.766641 0.000000
0.516861 0.765566 0.000000
0.541489 0.764441 0.000000
0.566694 0.763283 0.000000
0.592346 0.762107 0.000000
0.618332 0.760933 0.000000
0.644557 0.759780 0.000000
0.670976 0.758700 0.000000
0.697501 0.757681 0.000000
0.724084 0.756740 0.000000
0.750697 0.755892 0.000000
0.777324 0.755151 0.000000
0.803992 0.754559 0.000000
0.835797 0.752035 0.000000
0.870902 0.747993 0.000000
0.905765 0.743766 0.000000
0.940402 0.739353 0.000000
0.974826 0.734750 0.000000
1.000000 0.729952 0.000000
1.000000 0.724957 0.000000
1.000000 0.719758 0.000000
1.000000 0.714350 0.000000
0.300593 0.804144 0.000000
0.309019 0.803727 0.000000
0.318242 0.803253 0.000000
0.330939 0.802573 0.000000
0.347126 0.801658 0.000000
0.366549 0.800486 0.000000
0.388866 0.799037 0.000000
0.413708 0.797291 0.000000
0.432486 0.796526 0.000000
0.452512 0.795718 0.000000
0.473882 0.794827 0.000000
0.496389 0.793862 0.000000
0.519843 0.792830 0.000000
0.544084 0.791752 0.000000
0.568967 0.790650 0.000000
0.594348 0.789523 0.000000
0.620113 0.788386 0.000000
0.646164 0.787258 0.000000
0.672420 0.786154 0.000000
0.698816 0.785094 0.000000
0.725299 0.784093 0.000000
0.751832 0.783167 0.000000
0.778387 0.782331 0.000000
0.804955 0.781597 0.000000
0.831561 0.781004 0.000000
0.862787 0.778685 0.000000
0.897833 0.774660 0.000000
0.932643 0.770456 0.000000
0.967233 0.766071 0.000000
1.000000 0.761501 0.000000
1.000000 0.756742 0.000000
1.000000 0.751791 0.000000
1.000000 0.746643 0.000000
0.306735 0.831124 0.000000
0.314840 0.830731 0.000000
0.323723 0.830286 0.000000
0.335973 0.829647 0.000000
0.351637 0.828788 0.000000
0.370484 0.827693 0.000000
0.392195 0.826341 0.000000
0.416422 0.824711 0.000000
0.437643 0.823577 0.000000
0.457154 0.822827 0.000000
0.478031 0.821997 0.000000
0.500078 0.821095 0.000000
0.523113 0.820127 0.000000
0.546970 0.819103 0.000000
0.571499 0.818034 0.000000
0.596573 0.816932 0.000000
0.622074 0.815811 0.000000
0.647904 0.814685 0.000000
0.673980 0.813572 0.000000
0.700231 0.812485 0.000000
0.726600 0.811443 0.000000
0.753044 0.810459 0.000000
0.779528 0.809548 0.000000
0.806030 0.808722 0.000000
0.832542 0.807994 0.000000
0.859091 0.807401 0.000000
0.889743 0.805285 0.000000
0.924733 0.801277 0.000000
0.959493 0.797095 0.000000
0.994040 0.792736 0.000000
1.000000 0.788197 0.000000
1.000000 0.783475 0.000000
1.000000 0.778566 0.000000
0.312897 0.858181 0.000000
0.320705 0.857812 0.000000
0.329273 0.857395 0.000000
0.341117 0.856796 0.000000
0.356288 0.855990 0.000000
0.374583 0.854958 0.000000
0.395711 0.853683 0.000000
0.419345 0.852148 0.000000
0.443010 0.850653 0.000000
0.462009 0.849942 0.000000
0.482392 0.849154 0.000000
0.503972 0.848293 0.000000
0.526570 0.847366 0.000000
0.550029 0.846381 0.000000
0.574201 0.845346 0.000000
0.598957 0.844273 0.000000
0.624183 0.843173 0.000000
0.649779 0.842059 0.000000
0.675659 0.840945 0.000000
0.701750 0.839846 0.000000
0.727992 0.838776 0.000000
0.754334 0.837750 0.000000
0.780739 0.836782 0.000000
0.807176 0.835884 0.000000
0.833628 0.835068 0.000000
0.860087 0.834345 0.000000
0.886581 0.833752 0.000000
0.916665 0.831838 0.000000
0.951604 0.827845 0.000000
0.986318 0.823684 0.000000
1.000000 0.819350 0.000000
1.000000 0.814841 0.000000
1.000000 0.810154 0.000000
0.318971 0.885205 0.000000
0.326497 0.884857 0.000000
0.334773 0.884463 0.000000
0.346233 0.883897 0.000000
0.360941 0.883135 0.000000
0.378718 0.882159 0.000000
0.399294 0.880955 0.000000
0.422366 0.879505 0.000000
0.447615 0.877795 0.000000
0.466998 0.876994 0.000000
0.486902 0.876245 0.000000
0.508023 0.875423 0.000000
0.530192 0.874536 0.000000
0.553254 0.873588 0.000000
0.577065 0.872589 0.000000
0.601499 0.871547 0.000000
0.626440 0.870472 0.000000
0.651791 0.869375 0.000000
0.677461 0.868269 0.000000
0.703378 0.867167 0.000000
0.729478 0.866082 0.000000
0.755706 0.865028 0.000000
0.782019 0.864017 0.000000
